src/assets/img/pour-understandable.svg

<svg width="100%" height="100%" viewBox="0 0 39.5421 42.658" xmlns="http://www.w3.org/2000/svg">
<path d="M16.327 25.0616L16.535 26.7679C16.5697 27.0523 16.6824 27.2834 16.873 27.4611C17.0637 27.6389 17.2976 27.7277 17.575 27.7277H19.8628C20.1401 27.7277 20.3741 27.6389 20.5648 27.4611C20.7554 27.2834 20.8681 27.0523 20.9028 26.7679L21.1108 25.0616C21.3881 24.955 21.6394 24.8305 21.8647 24.6883C22.09 24.5461 22.2894 24.3862 22.4627 24.2084L24.0226 24.9016C24.2652 25.0083 24.5079 25.026 24.7505 24.955C24.9932 24.8839 25.1838 24.7239 25.3225 24.475L26.4664 22.4488C26.6051 22.2 26.6484 21.9511 26.5964 21.7023C26.5444 21.4534 26.4144 21.2401 26.2065 21.0624L24.8545 20.0493C24.9239 19.7649 24.9585 19.4805 24.9585 19.1961C24.9585 18.9117 24.9239 18.6273 24.8545 18.343L26.2065 17.3298C26.4144 17.1521 26.5444 16.9388 26.5964 16.69C26.6484 16.4411 26.6051 16.1923 26.4664 15.9434L25.3225 13.9172C25.1838 13.6683 24.9932 13.5084 24.7505 13.4373C24.5079 13.3662 24.2652 13.384 24.0226 13.4906L22.4627 14.1838C22.2894 14.0061 22.09 13.8461 21.8647 13.7039C21.6394 13.5617 21.3881 13.4373 21.1108 13.3306L20.9028 11.6243C20.8681 11.3399 20.7554 11.1089 20.5648 10.9311C20.3741 10.7534 20.1401 10.6645 19.8628 10.6645H17.575C17.2976 10.6645 17.0637 10.7534 16.873 10.9311C16.6824 11.1089 16.5697 11.3399 16.535 11.6243L16.327 13.3306C16.0497 13.4373 15.7984 13.5617 15.5731 13.7039C15.3478 13.8461 15.1484 14.0061 14.9751 14.1838L13.4152 13.4906C13.1726 13.384 12.9299 13.3662 12.6873 13.4373C12.4446 13.5084 12.2539 13.6683 12.1153 13.9172L10.9714 15.9434C10.8327 16.1923 10.7894 16.4411 10.8414 16.69C10.8934 16.9388 11.0234 17.1521 11.2313 17.3298L12.5833 18.343C12.5139 18.6273 12.4793 18.9117 12.4793 19.1961C12.4793 19.4805 12.5139 19.7649 12.5833 20.0493L11.2313 21.0624C11.0234 21.2401 10.8934 21.4534 10.8414 21.7023C10.7894 21.9511 10.8327 22.2 10.9714 22.4488L12.1153 24.475C12.2539 24.7239 12.4446 24.8839 12.6873 24.955C12.9299 25.026 13.1726 25.0083 13.4152 24.9016L14.9751 24.2084C15.1484 24.3862 15.3478 24.5461 15.5731 24.6883C15.7984 24.8305 16.0497 24.955 16.327 25.0616ZM18.7189 22.3955C17.8523 22.3955 17.1157 22.0844 16.509 21.4623C15.9024 20.8402 15.5991 20.0848 15.5991 19.1961C15.5991 18.3074 15.9024 17.552 16.509 16.9299C17.1157 16.3078 17.8523 15.9968 18.7189 15.9968C19.5855 15.9968 20.3221 16.3078 20.9288 16.9299C21.5354 17.552 21.8387 18.3074 21.8387 19.1961C21.8387 20.0848 21.5354 20.8402 20.9288 21.4623C20.3221 22.0844 19.5855 22.3955 18.7189 22.3955ZM6.23963 33.4866C4.26375 31.638 2.72984 29.4785 1.6379 27.0079C0.545968 24.5373 0 21.9333 0 19.1961C0 13.8639 1.81989 9.33145 5.45968 5.59887C9.09946 1.86629 13.5192 0 18.7189 0C23.052 0 26.8911 1.3064 30.2362 3.91921C33.5814 6.53201 35.7566 9.93577 36.7618 14.1305L39.4657 25.0616C39.639 25.737 39.5177 26.3502 39.1017 26.9012C38.6857 27.4522 38.1311 27.7277 37.4378 27.7277H33.278V34.1264C33.278 35.2995 32.8707 36.3038 32.0561 37.1392C31.2415 37.9745 30.2622 38.3922 29.1183 38.3922H24.9585V40.5251C24.9585 41.1295 24.7592 41.636 24.3606 42.0448C23.9619 42.4536 23.4679 42.658 22.8787 42.658C22.2894 42.658 21.7954 42.4536 21.3967 42.0448C20.9981 41.636 20.7988 41.1295 20.7988 40.5251V36.2593C20.7988 35.655 20.9981 35.1484 21.3967 34.7396C21.7954 34.3308 22.2894 34.1264 22.8787 34.1264H29.1183V25.5948C29.1183 24.9905 29.3176 24.4839 29.7162 24.0751C30.1149 23.6663 30.6089 23.4619 31.1982 23.4619H34.734L32.7581 15.1969C31.9608 11.962 30.2622 9.33145 27.6624 7.30519C25.0625 5.27893 22.0814 4.2658 18.7189 4.2658C14.6978 4.2658 11.266 5.70551 8.4235 8.58493C5.581 11.4643 4.15975 14.9659 4.15975 19.0895C4.15975 21.2224 4.5844 23.2486 5.43368 25.1682C6.28296 27.0879 7.48756 28.7942 9.04747 30.2872L10.3994 31.5669V40.5251C10.3994 41.1295 10.2001 41.636 9.80142 42.0448C9.40278 42.4536 8.90881 42.658 8.31951 42.658C7.73021 42.658 7.23624 42.4536 6.8376 42.0448C6.43895 41.636 6.23963 41.1295 6.23963 40.5251V33.4866Z" fill="var(--fill-0, #154973)"/>
</svg>

<svg xmlns="http://www.w3.org/2000/svg" viewBox="0 0 39.542 42.658"><path fill="var(--fill-0, #154973)" d="m16.327 25.062.208 1.706q.052.426.338.693a1 1 0 0 0 .702.267h2.288a1 1 0 0 0 .702-.267q.285-.267.338-.693l.208-1.706q.415-.16.754-.374a3.3 3.3 0 0 0 .598-.48l1.56.694q.364.16.727.053.364-.107.573-.48l1.143-2.026q.209-.373.13-.747a1.13 1.13 0 0 0-.39-.64l-1.351-1.013a3.6 3.6 0 0 0 0-1.706l1.351-1.013q.312-.267.39-.64a1.05 1.05 0 0 0-.13-.747l-1.143-2.026a.95.95 0 0 0-.573-.48 1.03 1.03 0 0 0-.727.054l-1.56.693a3.3 3.3 0 0 0-.598-.48 4.3 4.3 0 0 0-.754-.373l-.208-1.707a1.1 1.1 0 0 0-.338-.693 1 1 0 0 0-.702-.266h-2.288a1 1 0 0 0-.702.266q-.285.267-.338.693l-.208 1.707a4.3 4.3 0 0 0-.754.373 3.3 3.3 0 0 0-.598.48l-1.56-.693a1.03 1.03 0 0 0-.728-.054.95.95 0 0 0-.572.48l-1.144 2.026a1.05 1.05 0 0 0-.13.747q.078.373.39.64l1.352 1.013a3.6 3.6 0 0 0 0 1.706l-1.352 1.013a1.13 1.13 0 0 0-.39.64q-.077.374.13.747l1.144 2.026q.209.373.572.48.365.106.728-.053l1.56-.694q.26.267.598.48.338.214.754.374m2.392-2.667a2.97 2.97 0 0 1-2.21-.933q-.91-.933-.91-2.266t.91-2.266a2.97 2.97 0 0 1 2.21-.933q1.3 0 2.21.933t.91 2.266-.91 2.266a2.97 2.97 0 0 1-2.21.933M6.239 33.488a19.7 19.7 0 0 1-4.601-6.48A19.1 19.1 0 0 1 0 19.198q0-8 5.46-13.598Q10.92-.001 18.719 0q6.5 0 11.517 3.92 5.017 3.918 6.526 10.21l2.704 10.932q.26 1.012-.364 1.84-.623.826-1.664.826h-4.16v6.398q0 1.76-1.222 3.013t-2.938 1.253h-4.16v2.133q0 .907-.597 1.52a1.99 1.99 0 0 1-1.482.613q-.885 0-1.482-.613-.598-.614-.598-1.52V36.26q0-.905.598-1.52a1.99 1.99 0 0 1 1.482-.613h6.24v-8.531q0-.906.597-1.52a1.99 1.99 0 0 1 1.482-.613h3.536l-1.976-8.265q-1.196-4.853-5.096-7.892t-8.943-3.04q-6.032 0-10.295 4.32Q4.16 12.904 4.16 19.09q0 3.199 1.274 6.078a16 16 0 0 0 3.613 5.12l1.352 1.279v8.958q0 .907-.598 1.52a1.99 1.99 0 0 1-1.481.613q-.885 0-1.482-.613-.598-.614-.598-1.52z"/></svg>
